X:1
T:Hold Me, Thrill Me, Kiss Me
T:Hold me, thrill me, kiss me
T:Harry Noble
C:Harry Noble
Z:All Rights Reserved
L:1/8
M:4/4
K:C
V:1 treble 
%%MIDI program 4
V:1
"C""^Slow rok / Fox trot" c2 c2 c2 c2 |"F" eded cBAB |"C" G2 G2 G2 G2 |"F" AGAG FEDE | %4
w: Hold me hold me|nev- er let me go un- til you've|told me told me|what I want to know and then just|
w: thrill me thrill me|walk me down the lane where sha- dows|will be will be|hid- ing lov- ers just the same as|
"C" C2 C2 C2 C2 |"G7" EDED EDCD |1"C" E8- | E4 z4 :|2"C" C8- || C6 C2 |"F" D2 DD (3DED CD | %11
w: hold me hold me|make me tell you I'm in love with|you|_|you|_ they|told me be sen- si- ble with your|
w: we"ll be we"ll be|when you make me tell you I love||||||
"C" E2 E4 DE |"F" F2 FF (3FGF EF |"C" G6 E2 |"D7" ^F2 FF (3FAF EF |"G" G2 G4 GG |"G7" BBAA BBAA | %17
w: new love don't be|fooled think- ing this is the last you'll|find but|they nev- er stood in the dark with|you love when you|take me in your arms and drive me|
w: ||||||
 BBAA A2 B2 |"C" c2 c2 c2 cc |"F" eded cBAB |"C" G2 G2 G2 G2 |"F" AGAA FEDE |"C" C2 C2 C2 C2 | %23
w: slow- ly out of my mind|kiss me kiss me and|when you do I know that you will|miss me, miss me|if we ev- er say a- dieu so|kiss me kiss me|
w: ||||||
"G7" DEFG ABcd |"C" c4 cd e2 | cded c4- | c2 z2 z4 |] %27
w: make me tell you I'm in love with|you hold me tight|nev- er let me go.|_|
w: ||||

